!!!!SEGMENT: pl-wtm--r-1762--004_stefani-jozef--hans-jurga-marcia.krn
!!!cenid: 18xx:1915
!!!COM: Stefani, Józef
!!!COM-rism: pe30024097
!!!CDT: 1800/04/16-1876/03/19
!!!CNT: Polish
!!!OTL: Hans Jurga – Marcia
!!!PDT:
!!!AGN: Secular
!!!SMS-siglum: PL-Wtm
!!!SMS-shelfmark: R 1762
!!!NIFC-rismID: 1001131405
!!!URL-scan: http://repozytorium.nifc.pl/skany/pl-wtm-nut--r1762
!!!ONB-nifc: UWAGA: No. 5., skany 0017-0019
!!!SMS-variant:
!!!SMS-altvar:
**kern	**dynam	**kern	**dynam	**kern	**dynam	**kern	**kern	**dynam	**kern	**kern	**dynam	**kern	**dynam	**kern	**dynam	**kern	**dynam	**kern	**dynam	**kern	**dynam	**kern	**dynam	**kern	**kern	**dynam	**kern	**dynam	**kern	**dynam	**kern	**kern	**dynam
*	*	*	*	*	*	*group4	*group4	*	*	*	*	*	*	*	*	*group3	*	*group3	*	*	*	*	*	*group2	*group2	*	*	*	*	*	*group1	*group1	*
*	*	*	*	*	*	*I""Violini	*I""Violini	*	*	*	*	*	*	*	*	*I""Tromboni	*	*I""Tromboni	*	*	*	*	*	*I""Corni	*I""Corni	*	*	*	*	*	*	*	*
*	*	*	*	*	*	*I''vl	*I''vl	*	*	*	*	*	*	*	*	*I''trb	*	*I''trb	*	*	*	*	*	*I''cor	*I''cor	*	*	*	*	*	*	*	*
*part19	*part19	*part18	*part18	*part17	*part17	*part16	*part15	*part15	*part14	*part13	*part13	*part12	*part12	*part11	*part11	*part10	*part10	*part9	*part9	*part8	*part8	*part7	*part7	*part6	*part5	*part5	*part4	*part4	*part3	*part3	*part2	*part1	*part1
*staff19	*	*staff18	*	*staff17	*	*staff16	*staff15	*	*staff14	*staff13	*	*staff12	*	*staff11	*	*staff10	*	*staff9	*	*staff8	*	*staff7	*	*staff6	*staff5	*	*staff4	*	*staff3	*	*staff2	*staff1	*
*I"C: Basſi	*	*I"Violoncelli	*	*I"Viole	*	*	*	*	*I"P. Tambour	*I"Timpani	*	*I"G. Caſsa	*	*I"Triangolo	*	*	*	*	*	*I"in C Trombe	*	*I"Fagotti	*	*I"in B.	*I"in Es	*	*I"in B. Clarinetti	*	*I"Oboe	*	*I"Picolo	*I"Flauto	*
*I'cb	*	*I'vcl	*	*I'vla	*	*	*	*	*I'tamb	*I'timp	*	*I'grancassa	*	*I'triangolo	*	*	*	*	*	*I'tr	*	*I'fag	*	*	*	*	*I'cl in B	*	*I'ob	*	*I'fl picc	*I'fl	*
*clefF4	*	*clefF4	*	*clefC3	*	*clefG2	*clefG2	*	*clefF4	*clefF4	*	*clefF4	*	*clefG2	*	*clefF4	*	*clefC4	*	*clefG2	*	*clefF4	*	*clefG2	*clefG2	*	*clefG2	*	*clefG2	*	*clefG2	*clefG2	*
*	*	*	*	*	*	*	*	*	*	*	*	*	*	*	*	*	*	*	*	*	*	*	*	*ITrd1c2	*ITrd-2c-3	*	*ITrd1c2	*	*	*	*	*	*
*k[b-e-a-]	*	*k[b-e-a-]	*	*k[b-e-a-]	*	*k[b-e-a-]	*k[b-e-a-]	*	*k[]	*k[]	*	*k[]	*	*k[]	*	*k[b-e-a-]	*	*k[b-e-a-]	*	*k[b-e-a-]	*	*k[b-e-a-]	*	*k[b-e-]	*k[b-e-a-]	*	*k[b-e-a-]	*	*k[b-e-a-]	*	*k[b-e-a-]	*k[b-e-a-]	*
*E-:	*	*E-:	*	*E-:	*	*E-:	*E-:	*	*E-:	*E-:	*	*E-:	*	*E-:	*	*E-:	*	*E-:	*	*E-:	*	*E-:	*	*E-:	*	*	*E-:	*	*E-:	*	*E-:	*E-:	*
*M2/4	*	*M2/4	*	*M2/4	*	*M2/4	*M2/4	*	*M2/4	*M2/4	*	*M2/4	*	*M2/4	*	*M2/4	*	*M2/4	*	*M2/4	*	*M2/4	*	*M2/4	*M2/4	*	*M2/4	*	*M2/4	*	*M2/4	*M2/4	*
*	*	*	*	*	*	*	*	*	*	*	*	*	*	*	*	*	*	*	*	*	*	*	*	*	*^	*	*	*	*	*	*	*	*
!	!	!	!	!	!	!	!	!	!	!LO:TX:a:t=P:problem:przed metrum nuty E- i BB-	!	!	!	!	!	!	!	!	!	!	!	!	!LO:DY:rj	!	!	!	!LO:DY:rj	!	!LO:DY:rj	!	!	!	!LO:TX:a:t=MaRaia No 5.	!
8r	.	8r	.	8r	.	8r	8r	.	8r	8r	.	8r	.	8r	.	8r	.	8r	.	8r	.	8G\	p	8r	8g/	8g\	p	8g/	p	8r	.	8r	8r	.
*	*	*	*	*	*	*	*	*	*	*	*	*	*	*	*	*	*	*	*	*	*	*	*	*	*v	*v	*	*	*	*	*	*	*	*
=1	=1	=1	=1	=1	=1	=1	=1	=1	=1	=1	=1	=1	=1	=1	=1	=1	=1	=1	=1	=1	=1	=1	=1	=1	=1	=1	=1	=1	=1	=1	=1	=1	=1
!	!	!	!	!	!	!	!	!	!	!	!	!	!	!	!	!	!	!	!	!	!	!	!	!	!	!	!	!	!	!	!	!LO:TX:a:i:t=[[Anna/&colon; Rozważ to, już nic się nieda zmienić,\nTego nieocalisz a nas zgubić możesz!&colon;/]]	!
2r	.	2r	.	2r	.	2r	2r	.	2r	2r	.	2r	.	2r	.	2r	.	2r	.	2r	.	4B-\	.	2r	4b-/	.	4b-\	.	2r	.	2r	2r	.
.	.	.	.	.	.	.	.	.	.	.	.	.	.	.	.	.	.	.	.	.	.	(16B-\LL	.	.	16b-/LL	.	(16b-\LL	.	.	.	.	.	.
.	.	.	.	.	.	.	.	.	.	.	.	.	.	.	.	.	.	.	.	.	.	16G\	.	.	(16g/	.	16g\	.	.	.	.	.	.
.	.	.	.	.	.	.	.	.	.	.	.	.	.	.	.	.	.	.	.	.	.	16B-\	.	.	16b-/	.	16b-\	.	.	.	.	.	.
!	!	!	!	!	!	!	!	!	!	!	!	!	!	!	!	!	!	!	!	!	!	!	!	!	!	!LO:HP:t=cresc	!	!LO:HP:t=cresc	!	!	!	!	!
.	.	.	.	.	.	.	.	.	.	.	.	.	.	.	.	.	.	.	.	.	.	16e-\JJ)	<	.	16ee-/JJ)	<	16ee-\JJ)	<	.	.	.	.	.
=2	=2	=2	=2	=2	=2	=2	=2	=2	=2	=2	=2	=2	=2	=2	=2	=2	=2	=2	=2	=2	=2	=2	=2	=2	=2	=2	=2	=2	=2	=2	=2	=2	=2
2r	.	2r	.	2r	.	2r	2r	.	2r	2r	.	2r	.	2r	.	2r	.	2r	.	2r	.	(16B-\LL	.	2r	(16b-/LL	.	(16b-\LL	.	2r	.	2r	2r	.
.	.	.	.	.	.	.	.	.	.	.	.	.	.	.	.	.	.	.	.	.	.	16G\	.	.	16g/	.	16g\	.	.	.	.	.	.
.	.	.	.	.	.	.	.	.	.	.	.	.	.	.	.	.	.	.	.	.	.	16B-\	.	.	16b-/	.	16b-\	.	.	.	.	.	.
.	.	.	.	.	.	.	.	.	.	.	.	.	.	.	.	.	.	.	.	.	.	16e-\JJ)	.	.	16ee-/JJ)	.	16ee-\JJ)	.	.	.	.	.	.
.	.	.	.	.	.	.	.	.	.	.	.	.	.	.	.	.	.	.	.	.	.	(16B-\LL	.	.	(16b-/LL	.	(16b-\LL	.	.	.	.	.	.
.	.	.	.	.	.	.	.	.	.	.	.	.	.	.	.	.	.	.	.	.	.	16G\	.	.	16g/	.	16g\	.	.	.	.	.	.
.	.	.	.	.	.	.	.	.	.	.	.	.	.	.	.	.	.	.	.	.	.	16B-\	.	.	16b-/	.	16b-\	.	.	.	.	.	.
.	.	.	.	.	.	.	.	.	.	.	.	.	.	.	.	.	.	.	.	.	.	16e-\JJ)	.	.	16ee-/JJ)	.	16ee-\JJ)	.	.	.	.	.	.
=3	=3	=3	=3	=3	=3	=3	=3	=3	=3	=3	=3	=3	=3	=3	=3	=3	=3	=3	=3	=3	=3	=3	=3	=3	=3	=3	=3	=3	=3	=3	=3	=3	=3
!	!	!LO:TX:a:t=P:problem:partia wiolonczeli zapisana odnośnikiem do Basu.	!	!	!	!	!	!	!	!	!	!	!	!	!	!	!	!	!	!	!	!	!	!	!	!	!	!	!	!	!	!	!
8r	.	8ryy	.	8r	.	8ryy	8r	.	8r	8r	.	4Ra/	.	8r	.	8r	.	8r	.	8r	.	8d 8B-\	.	8r	8ff 8b-/	.	8dd 8b-\	.	8r	.	8r	8r	.
*	*	*	*	*	*	*	*	*	*tremolo	*	*	*	*	*	*	*	*	*	*	*	*	*	*	*	*	*	*	*	*	*	*	*	*
!	!LO:DY:rj	!	!LO:DY:rj	!	!	!	!	!LO:DY:rj	!	!	!LO:DY:rj	!	!	!	!	!	!LO:DY:rj	!	!LO:DY:rj	!	!	!	!	!	!	!LO:DY:rj	!	!	!	!LO:DY:rj	!	!	!LO:DY:rj
16BB-/LL	f	16BB-/LLyy	fyy	16fLL 16B-\	.	16ddLL 16f\	16bb-LL 16b-\	f	32Ra/LLL	16BB-y/LL	f	.	.	16Ree\LL	.	16BB-/LL	f	16dLL 16B-\	f	16b-LL 16d/	.	16B-LL 16BB-\	.	16ddLL 16b-\	16ffLL 16b-/	f	16ffLL 16b-\	.	16bb-LL 16dd\	f	16bb-\LL	16ddd\LL	f
.	.	.	.	.	.	.	.	.	32Ra/	.	.	.	.	.	.	.	.	.	.	.	.	.	.	.	.	.	.	.	.	.	.	.	.
16BB-/JJ	.	16BB-/JJyy	.	16fJJ 16B-\	.	16ddJJ 16f\	16bb-JJ 16b-\	.	32Ra/	16BB-/JJ	.	.	.	16Ree\JJ	.	16BB-/JJ	.	16dJJ 16B-\	.	16b-JJ 16d/	.	16B-JJ 16BB-\	.	16ddJJ 16b-\	16ffJJ 16b-/	.	16ffJJ 16b-\	.	16bb-JJ 16dd\	.	16bb-\JJ	16ddd\JJ	.
.	.	.	.	.	.	.	.	.	32Ra/JJ	.	.	.	.	.	.	.	.	.	.	.	.	.	.	.	.	.	.	.	.	.	.	.	.
*	*	*	*	*	*	*	*	*	*Xtremolo	*	*	*	*	*	*	*	*	*	*	*	*	*	*	*	*	*	*	*	*	*	*	*	*
8BB-/L	.	8BB-/Lyy	.	8fL 8B-\	.	8ddL 8f\	8bb-L 8b-\	.	8Ra/	8BB-/L	.	4r	.	8Ree\L	.	8BB-/L	.	8dL 8B-\	.	8b-L 8d/	.	8B-L 8BB-\	.	8ddL 8b-\	8ffL 8b-/	.	8ffL 8b-\	.	8bb-L 8dd\	.	8bb-\L	8ddd\L	.
8D/J	.	8D/Jyy	.	8fJ 8B-\	.	8ffJ 8b-\	8aa-J 8b-\	.	8Ra/J	8BB-/J	.	.	.	8Ree\J	.	8D/J	.	8fJ 8A-\	.	8a-J 8f/	.	8B-J 8BB-\	.	8ddJ 8b-\	8ffJ 8b-/	.	8ffJ 8b-\	.	8aa-J 8ff\	.	8aa-\J	8fff\J	.
!!LO:PB:g=original
=4	=4	=4	=4	=4	=4	=4	=4	=4	=4	=4	=4	=4	=4	=4	=4	=4	=4	=4	=4	=4	=4	=4	=4	=4	=4	=4	=4	=4	=4	=4	=4	=4	=4
*	*	*	*	*	*	*	*	*	*	*	*	*	*	*	*	*	*	*	*	*	*	*	*	*	*^	*	*^	*	*	*	*	*	*
8E-/L	.	8E-/Lyy	.	8gL 8B-\	.	8ee-\L	8ggL 8b-\	.	8Ra/L	8E-y/L	.	4Ra/	.	8Ree\L	.	8E-/L	.	8e-L 8G\	.	8gL 8e-/	.	8B-L 8E-\	.	8ee-L 8b-\	8ggL 8ee-\	4.ryy	.	8ee-L 8b-\	4.ryy	.	8ggL 8ee-\	.	8gg\L	8eee-\L	.
*	*	*	*	*	*	*	*	*	*tremolo	*	*	*	*	*tremolo	*	*	*	*	*	*	*	*	*	*	*	*	*	*	*	*	*	*	*	*	*
8BB-/	.	8BB-/yy	.	8f 8B-\	.	8dd\	8ff 8b-\	.	32Ra/LL	8BB-y/	.	.	.	32Ree\LL	.	8BB-/	.	8d 8F\	.	8dd 8f/	.	8A- 8BB-\	.	8dd 8b-\	8ff 8b-\	.	.	8dd 8b-\	.	.	8aa- 8ff\	.	8ff\	8ddd\	.
.	.	.	.	.	.	.	.	.	32Ra/	.	.	.	.	32Ree\	.	.	.	.	.	.	.	.	.	.	.	.	.	.	.	.	.	.	.	.	.
.	.	.	.	.	.	.	.	.	32Ra/	.	.	.	.	32Ree\	.	.	.	.	.	.	.	.	.	.	.	.	.	.	.	.	.	.	.	.	.
.	.	.	.	.	.	.	.	.	32Ra/JJ	.	.	.	.	32Ree\JJ	.	.	.	.	.	.	.	.	.	.	.	.	.	.	.	.	.	.	.	.	.
*	*	*	*	*	*	*	*	*	*Xtremolo	*	*	*	*	*Xtremolo	*	*	*	*	*	*	*	*	*	*	*	*	*	*	*	*	*	*	*	*	*
8E-/J	.	8E-/Jyy	.	8gJ 8B-\	.	8ee-\J	8ee-J 8g\	.	8Ra/J	8E-/J	.	8Ra/	.	8Ree\J	.	8E-/J	.	8e-J 8G\	.	8ee-J 8g/	.	8GJ 8E-\	.	8ee-J 8b-\	8ee-J 8g\	.	.	8ee-J 8b-\	.	.	8ggJ 8ee-\	.	8ee-\J	8eee-\J	.
8r	.	8ryy	.	8r	.	8r	8r	.	8r	8r	.	8r	.	8r	.	8r	.	8r	.	8r	.	8G\	.	8r	8g/	8g\	.	8g/	8g\	.	8r	.	8r	8r	.
*	*	*	*	*	*	*	*	*	*	*	*	*	*	*	*	*	*	*	*	*	*	*	*	*	*v	*v	*	*	*	*	*	*	*	*	*
*	*	*	*	*	*	*	*	*	*	*	*	*	*	*	*	*	*	*	*	*	*	*	*	*	*	*	*v	*v	*	*	*	*	*	*
=5	=5	=5	=5	=5	=5	=5	=5	=5	=5	=5	=5	=5	=5	=5	=5	=5	=5	=5	=5	=5	=5	=5	=5	=5	=5	=5	=5	=5	=5	=5	=5	=5	=5
!	!	!	!	!	!	!	!	!	!	!	!	!	!	!	!	!	!	!	!	!	!	!	!LO:DY:rj	!	!	!	!	!LO:DY:rj	!	!	!	!	!
2r	.	2ryy	.	2r	.	2r	2r	.	2r	2r	.	2r	.	2r	.	2r	.	2r	.	2r	.	([4B-\	p	2r	([4b-/	.	([4b-\	p	2r	.	2r	2r	.
.	.	.	.	.	.	.	.	.	.	.	.	.	.	.	.	.	.	.	.	.	.	16B-\LL]	.	.	16b-/LL]	.	16b-\LL]	.	.	.	.	.	.
.	.	.	.	.	.	.	.	.	.	.	.	.	.	.	.	.	.	.	.	.	.	16G\	.	.	16g/	.	16g\	.	.	.	.	.	.
.	.	.	.	.	.	.	.	.	.	.	.	.	.	.	.	.	.	.	.	.	.	16B-\	.	.	16b-/	.	16b-\	.	.	.	.	.	.
!	!	!	!	!	!	!	!	!	!	!	!	!	!	!	!	!	!	!	!	!	!	!	!	!	!	!	!	!.	!	!	!	!	!
.	.	.	.	.	.	.	.	.	.	.	.	.	.	.	.	.	.	.	.	.	.	16e-\JJ)	.	.	16ee-/JJ)	.	16ee-\JJ)	.	.	.	.	.	.
!	!	!	!	!	!	!	!	!	!	!	!	!	!	!	!	!	!	!	!	!	!	!	!	!	!	!	!	!LO:HP:a:t=cresc&colon;	!	!	!	!	!
.	.	.	.	.	.	.	.	.	.	.	.	.	.	.	.	.	.	.	.	.	.	.	.	.	.	.	.	<	.	.	.	.	.
=6	=6	=6	=6	=6	=6	=6	=6	=6	=6	=6	=6	=6	=6	=6	=6	=6	=6	=6	=6	=6	=6	=6	=6	=6	=6	=6	=6	=6	=6	=6	=6	=6	=6
2r	.	2ryy	.	2r	.	2r	2r	.	2r	2r	.	2r	.	2r	.	2r	.	2r	.	2r	.	(16B-\LL	.	2r	(16b-/LL	.	(16b-\LL	.	2r	.	2r	2r	.
.	.	.	.	.	.	.	.	.	.	.	.	.	.	.	.	.	.	.	.	.	.	16G\	.	.	16g/	.	16g\	.	.	.	.	.	.
.	.	.	.	.	.	.	.	.	.	.	.	.	.	.	.	.	.	.	.	.	.	16B-\	.	.	16b-/	.	16b-\	.	.	.	.	.	.
.	.	.	.	.	.	.	.	.	.	.	.	.	.	.	.	.	.	.	.	.	.	16e-\JJ	.	.	16ee-/JJ	.	16ee-\JJ	.	.	.	.	.	.
*	*	*	*	*	*	*	*	*	*	*	*	*	*	*	*	*	*	*	*	*	*	*rep	*	*	*rep	*	*rep	*	*	*	*	*	*
.	.	.	.	.	.	.	.	.	.	.	.	.	.	.	.	.	.	.	.	.	.	16B-\LL	.	.	16b-/LL	.	16b-\LL	.	.	.	.	.	.
.	.	.	.	.	.	.	.	.	.	.	.	.	.	.	.	.	.	.	.	.	.	16G\	.	.	16g/	.	16g\	.	.	.	.	.	.
.	.	.	.	.	.	.	.	.	.	.	.	.	.	.	.	.	.	.	.	.	.	16B-\	.	.	16b-/	.	16b-\	.	.	.	.	.	.
.	.	.	.	.	.	.	.	.	.	.	.	.	.	.	.	.	.	.	.	.	.	16e-\JJ)	.	.	16ee-/JJ)	.	16ee-\JJ)	.	.	.	.	.	.
*	*	*	*	*	*	*	*	*	*	*	*	*	*	*	*	*	*	*	*	*	*	*Xrep	*	*	*Xrep	*	*Xrep	*	*	*	*	*	*
=7	=7	=7	=7	=7	=7	=7	=7	=7	=7	=7	=7	=7	=7	=7	=7	=7	=7	=7	=7	=7	=7	=7	=7	=7	=7	=7	=7	=7	=7	=7	=7	=7	=7
*	*	*	*	*	*	*	*	*	*	*	*	*	*	*	*	*	*	*	*	*	*	*	*	*	*	*	*^	*	*	*	*	*	*
!	!	!	!	!	!	!	!	!	!	!	!	!	!LO:DY:rj	!	!	!	!	!	!	!	!	!	!	!	!	!	!	!	!	!	!	!	!	!
8r	.	8ryy	.	8r	.	8r	8r	.	8r	8r	.	4Ra/	f	8r	.	8r	.	8r	.	8r	.	8d 8B-\	.	8r	8ff 8b-/	.	8dd/	8b-\	.	8r	.	8ryy	8r	.
*	*	*	*	*	*	*	*	*	*tremolo	*	*	*	*	*	*	*	*	*	*	*	*	*	*	*	*	*	*	*	*	*	*	*	*	*
!	!LO:DY:rj	!	!LO:DY:rj	!	!	!	!	!	!	!	!	!	!	!	!	!	!	!	!LO:DY:rj	!	!LO:DY:rj	!	!LO:DY:rj	!	!	!LO:DY:rj	!	!	!LO:DY:rj	!	!	!	!	!LO:DY:rj
16B-\LL	f	16B-\LLyy	fyy	16fLL 16B-\	.	16ddLL 16f/	16bb-LL 16b-\	.	32Ra/LLL	16BB-y/LL	.	.	.	16Ree\LL	.	16BB-/LL	.	16dLL 16F/	f	16b-LL 16d/	f	16dLL 16BB-\	f	16ddLL 16b-\	16ffLL 16b-/	f	16ffLL 16b-\	4.ryy	f	16bb-LL 16dd\	.	16bb-\LL	16ddd\LL	f
.	.	.	.	.	.	.	.	.	32Ra/	.	.	.	.	.	.	.	.	.	.	.	.	.	.	.	.	.	.	.	.	.	.	.	.	.
16B-\JJ	.	16B-\JJyy	.	16fJJ 16B-\	.	16ddJJ 16f/	16bb-JJ 16b-\	.	32Ra/	16BB-/JJ	.	.	.	16Ree\JJ	.	16BB-/JJ	.	16dJJ 16F/	.	16b-JJ 16d/	.	16dJJ 16BB-\	.	16ddJJ 16b-\	16ffJJ 16b-/	.	16ffJJ 16b-\	.	.	16bb-JJ 16dd\	.	16bb-\JJ	16ddd\JJ	.
.	.	.	.	.	.	.	.	.	32Ra/JJ	.	.	.	.	.	.	.	.	.	.	.	.	.	.	.	.	.	.	.	.	.	.	.	.	.
*	*	*	*	*	*	*	*	*	*Xtremolo	*	*	*	*	*	*	*	*	*	*	*	*	*	*	*	*	*	*	*	*	*	*	*	*	*
!LO:TX:t=P:problem:mixed beam	!	!LO:TX:t=P:problem:mixed beam	!	!	!	!	!	!	!	!	!	!	!	!	!	!	!	!	!	!	!	!	!	!	!	!	!	!	!	!	!	!	!	!
8B-\L	.	8B-\Lyy	.	8fL 8B-\	.	8ddL 8f/	8bb-L 8b-\	.	8Ra/	8BB-/L	.	4r	.	8Ree\L	.	8BB-/L	.	8dL 8F/	.	8b-L 8d/	.	8dL 8BB-\	.	8ddL 8b-\	8ffL 8b-/	.	8ffL 8b-\	.	.	8bb-L 8dd\	.	8bb-\L	8ddd\L	.
8BB-/J	.	8BB-/Jyy	.	8fJ 8B-\	.	8fJ 8B-/	8dd\J	.	8Ra/J	8BB-/J	.	.	.	8Ree\J	.	8BB-/J	.	8dJ 8F/	.	8ddJ 8f/	.	8dJ 8BB-\	.	8ddJ 8b-\	8ffJ 8b-/	.	8ffJ 8b-\	.	.	8bb-J 8dd\	.	8ddd\J	8ddd\J	.
*	*	*	*	*	*	*	*	*	*	*	*	*	*	*	*	*	*	*	*	*	*	*	*	*	*	*	*v	*v	*	*	*	*	*	*
!!LO:PB:g=original
=8	=8	=8	=8	=8	=8	=8	=8	=8	=8	=8	=8	=8	=8	=8	=8	=8	=8	=8	=8	=8	=8	=8	=8	=8	=8	=8	=8	=8	=8	=8	=8	=8	=8
8E-\L	.	8E-\Lyy	.	8gL 8B-\	.	8gL 8B-/	8ee-\L	.	8Ra/L	8E-y\L	.	8Ra/L	.	8Ree\L	.	8E-\L	.	8e-L 8G\	.	8ee-L 8g/	.	8e-L 8E-\	.	8ee-L 8b-\	8ggL 8ee-\	.	8ggL 8b-\	.	8ggL 8ee-\	.	8eee-\L	8eee-\L	.
*	*	*	*	*	*	*	*	*	*tremolo	*	*	*	*	*tremolo	*	*	*	*	*	*	*	*	*	*	*	*	*	*	*	*	*	*	*
8F\J	.	8F\Jyy	.	8fJ 8c\	.	8e-J 8c/	8an\J	.	32Ra/LL	8E-\J	.	8Ra/J	.	32Ree\LL	.	8F\J	.	8e-J 8An\	.	8anJ 8e-/	.	8cJ 8F\	.	8ccJ 8f\	8ffJ 8ee-\	.	8ffJ 8cc\	.	8aanJ 8ff\	.	8aan\J	8eee-\J	.
.	.	.	.	.	.	.	.	.	32Ra/	.	.	.	.	32Ree\	.	.	.	.	.	.	.	.	.	.	.	.	.	.	.	.	.	.	.
.	.	.	.	.	.	.	.	.	32Ra/	.	.	.	.	32Ree\	.	.	.	.	.	.	.	.	.	.	.	.	.	.	.	.	.	.	.
.	.	.	.	.	.	.	.	.	32Ra/JJJ	.	.	.	.	32Ree\JJJ	.	.	.	.	.	.	.	.	.	.	.	.	.	.	.	.	.	.	.
*	*	*	*	*	*	*	*	*	*Xtremolo	*	*	*	*	*Xtremolo	*	*	*	*	*	*	*	*	*	*	*	*	*	*	*	*	*	*	*
8BB-/	.	8BB-/yy	.	8f 8B-\	.	8d 8B-/	8b-\	.	8Ra/	8BB-y/	.	8Ra/	.	8Ree\	.	8BB-/	.	8d 8B-\	.	16.b-LL 16.d/	.	16.dLL 16.BB-\	.	8b- 8d/	16.ffLL 16.b-/	.	16.ffLL 16.dd\	.	16.bb-LL 16.dd\	.	16.bb-\LL	16.ddd\LL	.
.	.	.	.	.	.	.	.	.	.	.	.	.	.	.	.	.	.	.	.	32B-/JJk	.	32B-JJk 32BB-\	.	.	32b-/JJk	.	32b-\JJk	.	32bb-JJk 32b-\	.	32bb-\JJk	32bb-'\JJk	.
8r	.	8ryy	.	8r	.	8r	8r	.	8r	32r	.	8r	.	8r	.	8r	.	8r	.	32c/LLL	.	32AnLLL 32AAn/	.	8r	32cc/LLL	.	32cc\LLL	.	32cccLLL 32cc\	.	32ccc\LLL	32ccc'\LLL	.
.	.	.	.	.	.	.	.	.	.	32BB-/LLL	.	.	.	.	.	.	.	.	.	32d 32B-/	.	32A-X 32AA-X/	.	.	32dd 32b-/	.	32dd 32b-\	.	32bb- 32b-\	.	32ddd\	32ddd'\	.
.	.	.	.	.	.	.	.	.	.	32BB-/	.	.	.	.	.	.	.	.	.	32e- 32B-/	.	32G 32GG/	.	.	32ee- 32b-/	.	32ee- 32b-\	.	32bb- 32b-\	.	32eee-\	32eee-'\	.
.	.	.	.	.	.	.	.	.	.	32BB-/JJJ	.	.	.	.	.	.	.	.	.	32fJJJ 32B-/	.	32DJJJ 32DD/	.	.	32ffJJJ 32b-/	.	32ffJJJ 32b-\	.	32bb-JJJ 32b-\	.	32fff\JJJ	32fff'\JJJ	.
=9	=9	=9	=9	=9	=9	=9	=9	=9	=9	=9	=9	=9	=9	=9	=9	=9	=9	=9	=9	=9	=9	=9	=9	=9	=9	=9	=9	=9	=9	=9	=9	=9	=9
*	*	*	*	*	*	*	*	*	*	*	*	*	*	*	*	*	*	*	*	*	*	*	*	*	*^	*	*	*	*	*	*	*	*
*	*	*	*	*	*	*	*	*	*	*	*	*	*	*tremolo	*	*	*	*	*	*	*	*	*	*	*	*	*	*	*	*	*	*	*	*
.	.	.	.	.	.	.	.	.	(32qqRa/LLL	.	.	.	.	.	.	.	.	.	.	.	.	.	.	.	.	.	.	.	.	.	.	.	.	.
.	.	.	.	.	.	.	.	.	32qqRa/JJJ	.	.	.	.	.	.	.	.	.	.	.	.	.	.	.	.	.	.	.	.	.	.	.	.	.
!	!LO:DY:rj	!	!LO:DY:rj	!	!LO:DY:rj	!	!	!LO:DY:rj	!	!	!	!	!	!	!	!	!	!	!	!	!	!	!	!	!	!	!	!	!	!	!	!	!	!
4E-\	f	4E-\yy	fyy	4g 4B- 4E-\	f	4ee- 4g 4B-/	4gg 4b- 4e-\	f	4Ra/)	4E-y\	.	4Ra/	.	32Ree\LLL	.	4E-\	.	4g 4e-\	.	4g 4e-/	.	4E- 4EE-/	.	4b- 4B-/	4gg/	4ee-\	.	4gg\	.	4eee- 4ee-\	.	4ggg\	4ggg\	.
.	.	.	.	.	.	.	.	.	.	.	.	.	.	32Ree\	.	.	.	.	.	.	.	.	.	.	.	.	.	.	.	.	.	.	.	.
.	.	.	.	.	.	.	.	.	.	.	.	.	.	32Ree\	.	.	.	.	.	.	.	.	.	.	.	.	.	.	.	.	.	.	.	.
.	.	.	.	.	.	.	.	.	.	.	.	.	.	32Ree\	.	.	.	.	.	.	.	.	.	.	.	.	.	.	.	.	.	.	.	.
.	.	.	.	.	.	.	.	.	.	.	.	.	.	32Ree\	.	.	.	.	.	.	.	.	.	.	.	.	.	.	.	.	.	.	.	.
.	.	.	.	.	.	.	.	.	.	.	.	.	.	32Ree\	.	.	.	.	.	.	.	.	.	.	.	.	.	.	.	.	.	.	.	.
.	.	.	.	.	.	.	.	.	.	.	.	.	.	32Ree\	.	.	.	.	.	.	.	.	.	.	.	.	.	.	.	.	.	.	.	.
.	.	.	.	.	.	.	.	.	.	.	.	.	.	32Ree\JJJ	.	.	.	.	.	.	.	.	.	.	.	.	.	.	.	.	.	.	.	.
*	*	*	*	*	*	*	*	*	*	*	*	*	*	*Xtremolo	*	*	*	*	*	*	*	*	*	*	*	*	*	*	*	*	*	*	*	*
8BB-/L	.	8BB-/Lyy	.	8fL 8B-\	.	16dd\LL	(16ff\LL	.	4r	8BB-y/L	.	4r	.	8Ree\L	.	8BB-/L	.	16fLL 16d\	.	(>16fLL 16d/	.	8B-L 8BB-\	.	8b-L 8B-/	8ffL 8b-/	4ryy	.	(16ff\LL	.	(16dddLL 16dd\	.	(16fff\LL	(16fff\LL	.
.	.	.	.	.	.	16cc\	16ee-\	.	.	.	.	.	.	.	.	.	.	16e- 16c\	.	16e- 16c/	.	.	.	.	.	.	.	16ee-\	.	16ccc 16cc\	.	16eee-\	16eee-\	.
8BB-/J	.	8BB-/Jyy	.	8fJ 8B-\	.	16b-\	16dd\	.	.	8BB-/J	.	.	.	8Ree\J	.	8BB-/J	.	16d 16B-\	.	16d 16B-/	.	8B-J 8BB-\	.	8b-J 8B-/	8ffJ 8b-/	.	.	16dd\	.	16bb- 16b-\	.	16ddd\	16ddd\	.
.	.	.	.	.	.	16a-\JJ	16cc\JJ)	.	.	.	.	.	.	.	.	.	.	16cJJ 16A-\	.	16cJJ 16A-/	.	.	.	.	.	.	.	16cc\JJ)	.	16aa-JJ 16a-\)	.	16ccc\JJ)	16ccc\JJ)	.
*	*	*	*	*	*	*	*	*	*	*	*	*	*	*	*	*	*	*	*	*	*	*	*	*	*v	*v	*	*	*	*	*	*	*	*
=10	=10	=10	=10	=10	=10	=10	=10	=10	=10	=10	=10	=10	=10	=10	=10	=10	=10	=10	=10	=10	=10	=10	=10	=10	=10	=10	=10	=10	=10	=10	=10	=10	=10
*	*	*	*	*	*	*	*	*	*	*tremolo	*	*	*	*tremolo	*	*	*	*	*	*	*	*	*	*	*	*	*	*	*	*	*	*	*
4.E-\	.	4.E-\yy	.	4.e- 4.B-\	.	(4g/	(4b-T/	.	4Ra/	32E-y\LLL	.	4Ra/	.	32Ree\LLL	.	4.E-\	.	(4B- 4G/	.	(>4B- 4G/)	.	4.B- 4.E-\	.	4.b- 4.B-/	4.ee- 4.g/	.	(4b-/	.	(4gg 4g\	.	(4bb-\	(4bb-\	.
.	.	.	.	.	.	.	.	.	.	32E-\	.	.	.	32Ree\	.	.	.	.	.	.	.	.	.	.	.	.	.	.	.	.	.	.	.
.	.	.	.	.	.	.	.	.	.	32E-\	.	.	.	32Ree\	.	.	.	.	.	.	.	.	.	.	.	.	.	.	.	.	.	.	.
.	.	.	.	.	.	.	.	.	.	32E-\	.	.	.	32Ree\	.	.	.	.	.	.	.	.	.	.	.	.	.	.	.	.	.	.	.
.	.	.	.	.	.	.	.	.	.	32E-\	.	.	.	32Ree\	.	.	.	.	.	.	.	.	.	.	.	.	.	.	.	.	.	.	.
.	.	.	.	.	.	.	.	.	.	32E-\	.	.	.	32Ree\	.	.	.	.	.	.	.	.	.	.	.	.	.	.	.	.	.	.	.
.	.	.	.	.	.	.	.	.	.	32E-\	.	.	.	32Ree\	.	.	.	.	.	.	.	.	.	.	.	.	.	.	.	.	.	.	.
.	.	.	.	.	.	.	.	.	.	32E-\JJJ	.	.	.	32Ree\JJJ	.	.	.	.	.	.	.	.	.	.	.	.	.	.	.	.	.	.	.
*	*	*	*	*	*	*	*	*	*	*Xtremolo	*	*	*	*Xtremolo	*	*	*	*	*	*	*	*	*	*	*	*	*	*	*	*	*	*	*
.	.	.	.	.	.	8e-/)	8g/)	.	8Ra/	8E-\	.	4r	.	8Ree\	.	.	.	8G 8E-/)	.	8e- 8B-/)	.	.	.	.	.	.	8g/)	.	8ee- 8e-/)	.	8gg\)	8gg\L)	.
8E-\	.	8E-\yy	.	8e-\	.	8e-/	8g/	.	8r	8r	.	.	.	8r	.	8r	.	8r	.	8r	.	8r	.	8r	8r	.	8r	.	8ee- 8g/	.	8r	8gg'\J	.
=11	=11	=11	=11	=11	=11	=11	=11	=11	=11	=11	=11	=11	=11	=11	=11	=11	=11	=11	=11	=11	=11	=11	=11	=11	=11	=11	=11	=11	=11	=11	=11	=11	=11
8D/L	.	8D/Lyy	.	8d/L	.	8.f/L	8.a-\L	.	2r	2r	.	2r	.	2r	.	2r	.	2r	.	2r	.	8D/L	.	2r	4ff 4b-/	.	2r	.	8.ffL 8.a-\	.	2r	8.aa-\L	.
8BB-/J	.	8BB-/Jyy	.	8B-/J	.	.	.	.	.	.	.	.	.	.	.	.	.	.	.	.	.	8BB-/J	.	.	.	.	.	.	.	.	.	.	.
.	.	.	.	.	.	16a-/Jk	16ff\Jk	.	.	.	.	.	.	.	.	.	.	.	.	.	.	.	.	.	.	.	.	.	16aa-Jk 16ff\	.	.	16fff\Jk	.
8D/L	.	8D/Lyy	.	8d/L	.	8a-/L	8ff\L	.	.	.	.	.	.	.	.	.	.	.	.	.	.	8D/L	.	.	8ffL 8b-/	.	.	.	8aa-L 8ff\	.	.	8fff\L	.
8BB-/J	.	8BB-/Jyy	.	8B-/J	.	8f/J	8a-\J	.	.	.	.	.	.	.	.	.	.	.	.	.	.	8BB-/J	.	.	8ffJ 8b-/	.	.	.	8ff'J 8a-\	.	.	8aa-\J	.
!!LO:PB:g=original
=12	=12	=12	=12	=12	=12	=12	=12	=12	=12	=12	=12	=12	=12	=12	=12	=12	=12	=12	=12	=12	=12	=12	=12	=12	=12	=12	=12	=12	=12	=12	=12	=12	=12
*	*	*	*	*	*	*	*	*	*	*	*	*	*	*	*	*	*	*	*	*	*	*	*	*	*	*	*	*	*^	*	*	*	*
16E-'/LL	.	16E-'/LLyy	.	16e-\LL	.	16e-/LL	16g'/LL	.	2r	4r	.	2r	.	2r	.	2r	.	2r	.	4r	.	16E-'/LL	.	2r	4r	.	4r	.	16ee-/LL	16g\LL	.	4r	16gg'\LL	.
16BB-'/	.	16BB-'/yy	.	16B-\	.	16d/	16f'/	.	.	.	.	.	.	.	.	.	.	.	.	.	.	16BB-'/	.	.	.	.	.	.	16dd/	16f\	.	.	16ff'\	.
16E-'/	.	16E-'/yy	.	16e-\	.	16e-/	16g'/	.	.	.	.	.	.	.	.	.	.	.	.	.	.	16E-'/	.	.	.	.	.	.	16ee-/	16g\	.	.	16gg'\	.
16AA-'/JJ	.	16AA-'/JJyy	.	16A-\JJ	.	16c/JJ	16a-'/JJ	.	.	.	.	.	.	.	.	.	.	.	.	.	.	16AA-'/JJ	.	.	.	.	.	.	16cc/JJ	16a-\JJ	.	.	16aa-'\JJ	.
8BB-'/	.	8BB-'/yy	.	8B-\	.	8d/	8f 8B-/	.	.	8r	.	.	.	.	.	.	.	.	.	16.r	.	16.BB-'/LL	.	.	16.r	.	16.r	.	16.ddLL 16.f\	4ryy	.	16.r	16.ff'\LL	.
.	.	.	.	.	.	.	.	.	.	.	.	.	.	.	.	.	.	.	.	32B-/	.	32B-JJk 32BB-'/	.	.	32b-/	.	32b-\	.	32bb-JJk 32b-\	.	.	32bb-\	32bb-'\JJk	.
8r	.	8ryy	.	8r	.	8r	8r	.	.	32r	.	.	.	.	.	.	.	.	.	32c/LLL	.	32AnLLL 32AAn'/	.	.	32cc/LLL	.	32cc\LLL	.	32cccLLL 32cc\	.	.	32ccc\LLL	32ccc'\LLL	.
.	.	.	.	.	.	.	.	f	.	32BB-y'/LLL	.	.	.	.	.	.	.	.	.	32d 32B-/	.	32A-X 32AA-X'/	.	.	32dd 32b-/	.	32dd 32b-\	.	32bb- 32b-\	.	.	32ddd\	32ddd'\	.
.	.	.	.	.	.	.	.	.	.	32BB-'/	.	.	.	.	.	.	.	.	.	32e- 32B-/	.	32G 32GG'/	.	.	32ee- 32b-/	.	32ee- 32b-\	.	32bb- 32b-\	.	.	32eee-\	32eee-'\	.
.	.	.	.	.	.	.	.	.	.	32BB-'/JJJ	.	.	.	.	.	.	.	.	.	32fJJJ 32B-/	.	32DJJJ 32DD'/	.	.	32ffJJJ 32b-/	.	32ffJJJ 32b-\	.	32bb-JJJ 32b-\	.	.	32fff\JJJ	32fff'\JJJ	.
*	*	*	*	*	*	*	*	*	*	*	*	*	*	*	*	*	*	*	*	*	*	*	*	*	*	*	*	*	*v	*v	*	*	*	*
=13	=13	=13	=13	=13	=13	=13	=13	=13	=13	=13	=13	=13	=13	=13	=13	=13	=13	=13	=13	=13	=13	=13	=13	=13	=13	=13	=13	=13	=13	=13	=13	=13	=13
*	*	*	*	*	*	*	*	*	*	*	*	*	*	*	*	*	*	*	*	*	*	*	*	*	*^	*	*	*	*	*	*	*	*
.	.	.	.	.	.	.	.	.	16qqRa/LL	.	.	.	.	.	.	.	.	.	.	.	.	.	.	.	.	.	.	.	.	.	.	.	.	.
.	.	.	.	.	.	.	.	.	16qqRa/JJ	.	.	.	.	.	.	.	.	.	.	.	.	.	.	.	.	.	.	.	.	.	.	.	.	.
!	!LO:DY:rj	!	!LO:DY:rj	!	!LO:DY:rj	!	!	!	!	!	!	!	!	!	!LO:DY:rj	!	!	!	!LO:DY:rj	!	!	!	!	!	!	!	!	!	!	!	!	!	!	!
4E-\	f	4E-\yy	fyy	4g 4B- 4E-\	f	4ee- 4g 4B-/	4gg 4b- 4e-\	.	4Ra/	4E-y\	.	4Ra/	.	4Ree\	f	4E-\	.	4g 4e-\	f	4g 4e-/	.	4E- 4EE-/	.	4b- 4B-/	4gg/	4ee-\	.	4gg\	.	4eee- 4ee-\	.	4ggg\	4ggg\	.
(16BBn/LL	.	(yy16BBn/LLyy	.	(16Bn/LL	.	(16dd\LL	(16ff\LL	.	4r	4r	.	4r	.	4r	.	(16BBn/LL	.	(<16fLL 16d\	.	(>16fLL 16d/	.	(16BBn/LL	.	4r	4r	4reyy	.	(16ff\LL	.	(16dddLL 16dd\	.	16fff\LL	(16fff\LL	.
16C/	.	16C/yy	.	16c/	.	16cc\	16ee-\	.	.	.	.	.	.	.	.	16C/	.	16e- 16c\	.	16e- 16c/	.	16C/	.	.	.	.	.	16ee-\	.	16ccc 16cc\	.	16eee-\	16eee-\	.
16GG/	.	16GG/yy	.	16G/	.	16b-\	16dd\	.	.	.	.	.	.	.	.	16GG/	.	16d 16B-\)	.	16d 16B-/	.	16GG/	.	.	.	.	.	16dd\	.	16bb- 16b-\	.	16ddd\	16ddd\	.
16AA-/JJ)	.	16AA-/JJ)yy	.	16A-/JJ)	.	16a-\JJ)	16cc\JJ)	.	.	.	.	.	.	.	.	16AA-/JJ)	.	16cJJ 16A-\	.	16cJJ 16A-/)	.	16AA-/JJ)	.	.	.	.	.	16cc\JJ)	.	16aa-JJ 16a-\)	.	16ccc\JJ	16ccc\JJ)	.
*	*	*	*	*	*	*	*	*	*	*	*	*	*	*	*	*	*	*	*	*	*	*	*	*	*v	*v	*	*	*	*	*	*	*	*
=14	=14	=14	=14	=14	=14	=14	=14	=14	=14	=14	=14	=14	=14	=14	=14	=14	=14	=14	=14	=14	=14	=14	=14	=14	=14	=14	=14	=14	=14	=14	=14	=14	=14
.	.	.	.	.	.	.	.	.	16qqRa/LL	.	.	.	.	.	.	.	.	.	.	.	.	.	.	.	.	.	.	.	.	.	.	.	.
.	.	.	.	.	.	.	.	.	16qqRa/JJ	.	.	.	.	.	.	.	.	.	.	.	.	.	.	.	.	.	.	.	.	.	.	.	.
8BB-'/L	.	8BB-'/Lyy	.	8B-/L	.	8d'/L	8b-'/L	.	4Ra/	8BB-y/L	.	4Ra/	.	8Ree\L	.	8BB-'/L	.	8B-L 8D'/	.	8B-'/L	.	8BB-'/L	.	4r	4r	.	8b-'/L	.	8bb-L 8dd'\	.	8bb-'\L	8bb-'\L	.
*	*	*	*	*	*	*	*	*	*	*	*	*	*	*tremolo	*	*	*	*	*	*	*	*	*	*	*	*	*	*	*	*	*	*	*
(16C/L	.	(yy16C/Lyy	.	16c/L	.	(16e-/L	(16a-/L	.	.	16E-y/L	.	.	.	32Ree\LL	.	(<16C/L	.	(16A-L 16E-/	.	(16c/L	.	(16C/L	.	.	.	.	(16a-/L	.	(16aa-L 16ee-\	.	(16aa-\L	(16aa-\L	.
.	.	.	.	.	.	.	.	.	.	.	.	.	.	32Ree\	.	.	.	.	.	.	.	.	.	.	.	.	.	.	.	.	.	.	.
16D/JJ)	.	16D/JJ)yy	.	16dJJ 16B-/	.	16B-/JJ	16f/JJ)	.	.	16BB-/JJ	.	.	.	32Ree\	.	16D/JJ	.	16F/JJ)	.	16d/JJ	.	16D/JJ)	.	.	.	.	16f/JJ	.	16ffJJ 16b-\	.	16ff\JJ	16ff\JJ	.
.	.	.	.	.	.	.	.	.	.	.	.	.	.	32Ree\JJJ	.	.	.	.	.	.	.	.	.	.	.	.	.	.	.	.	.	.	.
*	*	*	*	*	*	*	*	*	*	*	*	*	*	*Xtremolo	*	*	*	*	*	*	*	*	*	*	*	*	*	*	*	*	*	*	*
8E-\	.	8E-\yy	.	8e- 8B-/	.	8e-/)	8g/	.	4r	8E-\	.	4r	.	8Ree\	.	8E-\)	.	8G 8E-/	.	8e-/)	.	8E-\	.	8r	8r	.	8e-/)	.	8gg 8b-\)	.	8gg\)	8gg\)	.
16C/LL	.	16C/LLyy	.	16c\LL	.	16g/LL	16ee-\LL	.	.	16E-\LL	.	.	.	8r	.	16C/LL	.	16e-LL 16G\	.	16ee-LL 16g\	.	16GLL 16C\	.	16ee-LL 16cc\	16ggLL 16ee-\	.	8r	.	16cccLL 16cc\	.	8r	16eee-\LL	.
16C/JJ	.	16C/JJyy	.	16c\JJ	.	16g/JJ	16ee-\JJ	.	.	16E-\JJ	.	.	.	.	.	16C/JJ	.	16e-JJ 16G\	.	16ee-JJ 16g\	.	16GJJ 16C\	.	16ee-JJ 16cc\	16ggJJ 16ee-\	.	.	.	16cccJJ 16cc\	.	.	16eee-\JJ	.
=15	=15	=15	=15	=15	=15	=15	=15	=15	=15	=15	=15	=15	=15	=15	=15	=15	=15	=15	=15	=15	=15	=15	=15	=15	=15	=15	=15	=15	=15	=15	=15	=15	=15
*	*	*	*	*^	*	*	*	*	*	*	*	*	*	*	*	*	*	*	*	*	*	*^	*	*	*	*	*	*	*	*	*	*	*
.	.	.	.	.	.	.	.	.	.	16qqRa/LL	.	.	.	.	.	.	.	.	.	.	.	.	.	.	.	.	.	.	.	.	.	.	.	.	.
.	.	.	.	.	.	.	.	.	.	16qqRa/JJ	.	.	.	.	.	.	.	.	.	.	.	.	.	.	.	.	.	.	.	.	.	.	.	.	.
16.F\LL	.	16.F\LLyy	.	16.f/LL	16.f\LL	.	16.f/LL	16.dd\LL	.	8Ra/	8BB-y/	.	8Ra/	.	8Ree\	.	8F\	.	8d 8F\	.	16.ddLL 16.f/	.	16.B-/LL	4F\	.	8dd 8b-\	8ff\	.	2r	.	16.bb-LL 16.dd\	.	2r	16.ddd'\LL	.
32F\JK	.	32F\JKyy	.	32b-/JJk	32f\JK	.	32f/K	32dd\K	.	.	.	.	.	.	.	.	.	.	.	.	32ddK 32f/	.	32B-/K	.	.	.	.	.	.	.	32bb-K 32dd\	.	.	32ddd'\K	.
8F\J	.	8F\Jyy	.	16.an/LL	8f\J	.	16.e-/	16.cc\	.	8r	8r	.	8r	.	8r	.	8r	.	8r	.	16.cc 16.e-/	.	16.An/	.	.	8r	8r	.	.	.	16.aan 16.ee-\	.	.	16.ccc'\	.
.	.	.	.	32b-/JJk	.	.	32d/JJk	32b-\JJk	.	.	.	.	.	.	.	.	.	.	.	.	32b-JJk 32d/	.	32B-/JJk	.	.	.	.	.	.	.	32bb-JJk 32dd\	.	.	32bb-'\JJk	.
!LO:TX:t=P:problem:mixed beam	!	!LO:TX:t=P:problem:mixed beam	!	!LO:TX:t=P:problem:mixed beam	!	!	!	!	!	!	!	!	!	!	!	!	!LO:TX:t=P:problem:mixed beam	!	!	!	!	!	!LO:TX:t=P:problem:mixed beam	!	!	!	!	!	!	!	!	!	!	!	!
8F\L	.	8F\Lyy	.	8f\L	4ryy	.	8dd 8f 8B-/	8ffL 8b- 8d/	.	8Ra/L	8BB-/L	.	8Ra/L	.	8Ree\L	.	8F\L	.	8dL 8B-\	.	8b-L 8d/	.	8B-/L	8F\L	.	8ddL 8b-\	8ff\L	.	.	.	8bb-L 8dd\	.	.	8fff\L	.
*	*	*	*	*	*	*	*	*	*	*	*	*	*	*	*tremolo	*	*	*	*	*	*	*	*	*	*	*	*	*	*	*	*	*	*	*	*
8FF/J	.	8FF/Jyy	.	8F/J	.	.	8e- 8c/	8ant/J	.	8RaT/J	8E-y/J	.	8Ra/J	.	32Ree\LL	.	8FF/J	.	8e-J 8An\	.	8anJ 8e-/	.	8c/J	8FF/J	.	8ccJ 8f\	8ffJ 8ee-\	.	.	.	8aaJ 8ccT\	.	.	8aant\J	.
.	.	.	.	.	.	.	.	.	.	.	.	.	.	.	32Ree\	.	.	.	.	.	.	.	.	.	.	.	.	.	.	.	.	.	.	.	.
.	.	.	.	.	.	.	.	.	.	.	.	.	.	.	32Ree\	.	.	.	.	.	.	.	.	.	.	.	.	.	.	.	.	.	.	.	.
.	.	.	.	.	.	.	.	.	.	.	.	.	.	.	32Ree\JJJ	.	.	.	.	.	.	.	.	.	.	.	.	.	.	.	.	.	.	.	.
*	*	*	*	*	*	*	*	*	*	*	*	*	*	*	*Xtremolo	*	*	*	*	*	*	*	*	*	*	*	*	*	*	*	*	*	*	*	*
.	.	.	.	.	.	.	.	(32qqg/LLL	.	.	.	.	.	.	.	.	.	.	.	.	.	.	.	.	.	.	.	.	.	.	32qqgg/LLL	.	.	(32qqgg/LLL	.
.	.	.	.	.	.	.	.	32qqa/JJJ)	.	.	.	.	.	.	.	.	.	.	.	.	.	.	.	.	.	.	.	.	.	.	32qqaa/JJJ	.	.	32qqaa/JJJ)	.
*	*	*	*	*v	*v	*	*	*	*	*	*	*	*	*	*	*	*	*	*	*	*	*	*v	*v	*	*	*	*	*	*	*	*	*	*	*
!!LO:PB:g=original
=16	=16	=16	=16	=16	=16	=16	=16	=16	=16	=16	=16	=16	=16	=16	=16	=16	=16	=16	=16	=16	=16	=16	=16	=16	=16	=16	=16	=16	=16	=16	=16	=16	=16
16.BB-\LL	.	16.BB-\LLyy	.	16.B-\LL	.	16.dLL 16.B-/	16.b-\LL	.	8Ra/	8BB-y/	.	8Ra/	.	8Ree\	.	16.BB-\LL	.	16.dLL 16.B-\	.	16.b-LL 16.d/	.	16.dLL 16.BB-\	.	16.ddLL 16.b-\	8ff 8b-/	.	4r	.	16.bb-LL 16.b-\	.	16.r	8bb-\	.
32B-\K	.	32B-\Kyy	.	32b-\K	.	32B-/K	32b-\K	.	.	.	.	.	.	.	.	32B-\K	.	32B-\K	.	32B-/K	.	32B-\K	.	32b-\K	.	.	.	.	32b-\K	.	32b-\KLL	.	.
16.F\	.	16.F\yy	.	16.f\	.	16.d/	16.dd\	.	8r	8r	.	8r	.	8r	.	16.F\	.	16.f\	.	16.d/	.	16.F\	.	16.ff\	8r	.	.	.	16.dd\	.	16.dd\	8r	.
32D\JJk	.	32D\JJkyy	.	32d\JJk	.	32f/JJk	32ff\JJk	.	.	.	.	.	.	.	.	32D\JJk	.	32d\JJk	.	32f/JJk	.	32D\JJk	.	32dd\JJk	.	.	.	.	32ff\JJk	.	32ff\JJk	.	.
8BB-/	.	8BB-/yy	.	8B-/	.	8b-/	8bb-\	.	8r	8r	.	8r	.	8r	.	8BB-/	.	8B-\	.	8b-/	.	8BB-/	.	8b-\	8r	.	8r	.	8bb-\	.	8bb-\	8r	.
==	==	==	==	==	==	==	==	==	==	==	==	==	==	==	==	==	==	==	==	==	==	==	==	==	==	==	==	==	==	==	==	==	==
*-	*-	*-	*-	*-	*-	*-	*-	*-	*-	*-	*-	*-	*-	*-	*-	*-	*-	*-	*-	*-	*-	*-	*-	*-	*-	*-	*-	*-	*-	*-	*-	*-	*-
!!!system-decoration: [({g1}s3,s4{g2}s7,s8{g3}s11,s12,s13,s14{g4}s17,s18,s19)]
!!!RDF**kern: > = above
!!!RDF**kern: < = below
!!!ENC: Marta Lawrence
!!!END: 2021-05-18
!!!ENC: Mateusz Solarz
!!!END: 2021-04-22
